img/socials/vk.svg

<svg width="26" height="15" viewBox="0 0 26 15" fill="none" xmlns="http://www.w3.org/2000/svg">
<path d="M15.5403 11.7281C16.4609 11.4384 17.6395 13.6406 18.8943 14.4834C19.836 15.1219 20.5573 14.9841 20.5573 14.9841L23.9017 14.9372C23.9017 14.9372 25.6495 14.8322 24.8232 13.4803C24.7549 13.3678 24.3389 12.4781 22.334 10.6472C20.2376 8.73186 20.5217 9.04218 23.0456 5.73093C24.5835 3.71249 25.1988 2.47968 25.0062 1.95468C24.8213 1.44936 23.6918 1.58061 23.6918 1.58061L19.9237 1.60593C19.5568 1.60686 19.2458 1.71749 19.1042 2.08874C19.1013 2.09249 18.5062 3.65061 17.7127 4.9753C16.0362 7.77749 15.3669 7.92655 15.0896 7.75124C14.4531 7.3453 14.6139 6.1228 14.6139 5.25374C14.6139 2.5378 15.0299 1.4053 13.7992 1.1128C13.388 1.0153 13.0876 0.951552 12.0389 0.942177C10.6985 0.922489 9.56027 0.942177 8.91508 1.25061C8.48656 1.45968 8.15819 1.91811 8.35753 1.94436C8.6079 1.97718 9.16931 2.09436 9.46975 2.49374C9.8559 3.01124 9.84434 4.17093 9.84434 4.17093C9.84434 4.17093 10.0649 7.36874 9.32434 7.7653C8.8159 8.03718 8.12064 7.48218 6.62516 4.9378C5.86153 3.63655 5.28471 2.19843 5.28471 2.19843C5.28471 2.19843 5.17301 1.93124 4.97079 1.78499C4.73005 1.61155 4.39301 1.55624 4.39301 1.55624L0.816563 1.57874C0.816563 1.57874 0.27923 1.59374 0.0818227 1.82436C-0.0934366 2.02874 0.0673782 2.45061 0.0673782 2.45061C0.0673782 2.45061 2.86864 8.90155 6.04064 12.1509C8.94879 15.1341 12.2537 14.9362 12.2537 14.9362H13.7511C13.7511 14.9362 14.2027 14.8856 14.4338 14.6437C14.6495 14.4187 14.6399 13.9959 14.6399 13.9959C14.6399 13.9959 14.61 12.0187 15.5403 11.7281Z" fill="white"/>
</svg>

<svg width="26" height="15" fill="none" xmlns="http://www.w3.org/2000/svg"><path d="M15.54 11.728c.92-.29 2.1 1.913 3.354 2.755.942.639 1.663.501 1.663.501l3.345-.047s1.747-.105.921-1.457c-.068-.112-.484-1.002-2.489-2.833-2.096-1.915-1.812-1.605.712-4.916 1.538-2.019 2.153-3.251 1.96-3.776-.185-.506-1.314-.374-1.314-.374l-3.768.025c-.367 0-.678.111-.82.483-.003.003-.598 1.562-1.391 2.886-1.677 2.802-2.346 2.952-2.623 2.776-.637-.406-.476-1.628-.476-2.497 0-2.716.416-3.849-.815-4.141-.411-.098-.711-.161-1.76-.17-1.34-.02-2.479 0-3.124.308-.428.209-.757.667-.557.693.25.033.811.15 1.112.55.386.517.374 1.677.374 1.677s.22 3.198-.52 3.594c-.508.272-1.203-.283-2.699-2.827-.763-1.301-1.34-2.74-1.34-2.74s-.112-.267-.314-.413c-.24-.173-.578-.229-.578-.229L.817 1.58s-.538.015-.735.245c-.175.205-.015.627-.015.627s2.802 6.45 5.974 9.7c2.908 2.983 6.213 2.785 6.213 2.785h1.497s.452-.05.683-.292c.216-.225.206-.648.206-.648s-.03-1.977.9-2.268z" fill="#fff"/></svg>
